images/icon-article.svg

<svg width="345" height="256" viewBox="0 0 345 256" fill="none" xmlns="http://www.w3.org/2000/svg">
<g opacity="0.05">
<path d="M206.854 10.0029C207.194 7.24263 208.533 4.70193 210.619 2.85948C212.704 1.01702 215.392 0 218.176 0C220.96 0 223.648 1.01702 225.734 2.85948C227.819 4.70193 229.158 7.24263 229.499 10.0029C237.071 48.4645 245.185 86.7409 252.457 125.202C250.332 135.587 251.202 146.2 251.031 156.713C251.031 174.889 250.96 193.052 251.031 211.228C244.372 207.411 244.472 199.12 243.003 192.525C234.376 150.587 226.29 108.479 217.463 66.6412C211.959 87.268 207.923 108.365 202.719 129.106C201.425 125.19 200.845 121.075 201.007 116.955C201.364 100.772 201.007 84.6042 201.193 68.436C201.121 58.7637 201.877 49.0343 200.237 39.4474C202.205 29.5756 204.658 19.8035 206.854 10.0029Z" fill="black"/>
<path d="M165.415 190.915C176.823 140.392 188.431 89.8938 200.238 39.4189C201.878 49.0059 201.122 58.7352 201.194 68.4076C200.98 84.5757 201.365 100.744 201.008 116.926C200.862 121.044 201.456 125.155 202.762 129.063C193.964 168.507 184.738 207.852 175.668 247.225C173.686 256.043 160.439 257.938 155.519 250.744C154.434 249.075 153.697 247.205 153.351 245.245C144.187 201.561 134.994 157.923 125.773 114.334C118.771 125.943 112.04 137.724 104.796 149.177C103.299 135.388 105.438 121.456 103.256 107.724C109.531 97.2823 115.591 86.7124 122.079 76.3848C127.256 69.1198 139.819 71.7124 141.901 80.3164C149.872 117.168 157.33 154.134 165.415 190.915Z" fill="black"/>
<path d="M286.482 89.4333C290.646 80.1883 306.218 82.4248 307.558 92.496C312.421 132.809 316.984 173.151 321.676 213.479C335.294 195.06 348.441 176.285 362.045 157.838C364.427 154.319 368.805 153.28 372.84 153.394C369.632 157.525 365.026 160.673 362.616 165.374C361.638 175.095 361.882 184.901 363.343 194.562V194.932C349.611 213.451 336.335 232.382 322.674 250.986C319.494 255.73 312.563 255.929 307.815 253.835C301.569 250.302 302.111 242.439 301.398 236.3C297.519 205.174 294.411 173.963 290.304 142.881C282.518 163.688 274.642 184.467 266.675 205.217C264.493 211.471 256.779 213.607 250.989 211.214C250.989 193.037 250.989 174.875 250.989 156.698C251.103 146.186 250.233 135.573 252.415 125.188C255.267 136.584 256.993 148.223 259.645 159.661C268.743 136.285 277.27 112.681 286.482 89.4333Z" fill="black"/>
<path d="M76.6901 152.439C85.3316 137.396 94.4009 122.524 103.299 107.724C105.481 121.456 103.299 135.387 104.839 149.177C101.673 155.274 97.809 160.986 94.4009 166.969C92.5899 170.174 89.7664 173.578 85.7594 173.707C74.3514 173.963 62.9435 173.707 51.5356 173.806C51.5356 166.684 51.4357 159.561 51.4072 152.439H76.6901Z" fill="black"/>
<path d="M0.156838 152.439H51.35C51.35 159.562 51.4498 166.684 51.4783 173.807H0C0.0285199 166.684 0.0807854 159.562 0.156838 152.439Z" fill="black"/>
</g>
</svg>

<svg width="345" height="256" fill="none" xmlns="http://www.w3.org/2000/svg"><g opacity=".05" fill="#000"><path d="M206.854 10.003a11.388 11.388 0 0 1 3.765-7.144 11.413 11.413 0 0 1 18.88 7.144c7.572 38.462 15.686 76.738 22.958 115.199-2.125 10.385-1.255 20.998-1.426 31.511 0 18.176-.071 36.339 0 54.515-6.659-3.817-6.559-12.108-8.028-18.703-8.627-41.938-16.713-84.046-25.54-125.884-5.504 20.627-9.54 41.724-14.744 62.465a34.415 34.415 0 0 1-1.712-12.151c.357-16.183 0-32.35.186-48.519-.072-9.672.684-19.402-.956-28.989 1.968-9.871 4.421-19.644 6.617-29.444Z"/><path d="M165.415 190.915a20154.908 20154.908 0 0 1 34.823-151.496c1.64 9.587.884 19.316.956 28.989-.214 16.168.171 32.336-.186 48.518a34.443 34.443 0 0 0 1.754 12.137c-8.798 39.444-18.024 78.789-27.094 118.162-1.982 8.818-15.229 10.713-20.149 3.519a14.813 14.813 0 0 1-2.168-5.499 79168.863 79168.863 0 0 0-27.578-130.911c-7.002 11.609-13.733 23.39-20.977 34.843-1.497-13.789.642-27.721-1.54-41.453 6.275-10.442 12.335-21.012 18.823-31.34 5.177-7.264 17.74-4.672 19.822 3.932 7.971 36.852 15.429 73.818 23.514 110.599ZM286.482 89.433c4.164-9.245 19.736-7.008 21.076 3.063 4.863 40.313 9.426 80.655 14.118 120.983 13.618-18.419 26.765-37.194 40.369-55.641 2.382-3.519 6.76-4.558 10.795-4.444-3.208 4.131-7.814 7.279-10.224 11.98a116.927 116.927 0 0 0 .727 29.188v.37c-13.732 18.519-27.008 37.45-40.669 56.054-3.18 4.744-10.111 4.943-14.859 2.849-6.246-3.533-5.704-11.396-6.417-17.535-3.879-31.126-6.987-62.337-11.094-93.419a7819.256 7819.256 0 0 1-23.629 62.336c-2.182 6.254-9.896 8.39-15.686 5.997v-54.516c.114-10.512-.756-21.125 1.426-31.51 2.852 11.396 4.578 23.035 7.23 34.473 9.098-23.376 17.625-46.98 26.837-70.228Z"/><path d="M76.69 152.439c8.642-15.043 17.71-29.915 26.609-44.715 2.182 13.732 0 27.663 1.54 41.453-3.166 6.097-7.03 11.809-10.438 17.792-1.811 3.205-4.635 6.609-8.642 6.738-11.408.256-22.816 0-34.223.099 0-7.122-.1-14.245-.129-21.367H76.69ZM.157 152.439H51.35c0 7.123.1 14.245.128 21.368H0c.029-7.123.08-14.245.157-21.368Z"/></g></svg>
